static/assets/img/icons/theme/devices/bluetooth.svg

<svg height="24" viewBox="0 0 24 24" width="24" xmlns="http://www.w3.org/2000/svg"><g fill="none" fill-rule="evenodd"><path d="m0 0h24v24h-24z" opacity="0"/><g fill="#000" fill-rule="nonzero"><path d="m12 13.8453624v4.9136006l3.3125397-1.9323148zm-2-1.8-3.66896473-3.30206825c-.41051002-.36945902-.44378844-1.00174886-.07432942-1.41225888s1.00174886-.44378844 1.41225888-.07432942l9.99999997 9.00000005c.5036433.4532789.420188 1.2656587-.1650937 1.607073l-6 3.5c-.6666566.388883-1.503871-.0919881-1.503871-.8637789z" opacity=".3"/><path d="m12 10.4375595 3.3984747-2.88870347-3.3984747-2.54885603zm-2-7.4375595c0-.82404532.9407637-1.29442719 1.6-.8l6 4.5c.5131546.38486597.5363893 1.14650959.0476484 1.56193932l-9.99999998 8.49999998c-.42080747.3576864-1.05190139.3065166-1.40958774-.1142909-.35768634-.4208074-.30651657-1.0519014.1142909-1.4095877l3.64764842-3.1005012z"/></g></g></svg>

<svg width="24px" height="24px" viewBox="0 0 24 24" version="1.1" xmlns="http://www.w3.org/2000/svg" xmlns:xlink="http://www.w3.org/1999/xlink">
    <title>Icon For Bluetooth</title>
    <g stroke="none" stroke-width="1" fill="none" fill-rule="evenodd">
        <rect opacity="0" x="0" y="0" width="24" height="24"></rect>
        <path d="M12,13.8453624 L12,18.758963 L15.3125397,16.8266482 L12,13.8453624 Z M10,12.0453624 L6.33103527,8.74329415 C5.92052525,8.37383513 5.88724683,7.74154529 6.25670585,7.33103527 C6.62616487,6.92052525 7.25845471,6.88724683 7.66896473,7.25670585 L17.6689647,16.2567059 C18.172608,16.7099848 18.0891527,17.5223646 17.503871,17.8637789 L11.503871,21.3637789 C10.8372144,21.7526619 10,21.2717908 10,20.5 L10,12.0453624 Z" fill="#000000" fill-rule="nonzero" opacity="0.3"></path>
        <path d="M12,10.4375595 L15.3984747,7.54885603 L12,5 L12,10.4375595 Z M10,3 C10,2.17595468 10.9407637,1.70557281 11.6,2.2 L17.6,6.7 C18.1131546,7.08486597 18.1363893,7.84650959 17.6476484,8.26193932 L7.64764842,16.7619393 C7.22684095,17.1196257 6.59574703,17.0684559 6.23806068,16.6476484 C5.88037434,16.226841 5.93154411,15.595747 6.35235158,15.2380607 L10,12.1375595 L10,3 Z" fill="#000000" fill-rule="nonzero"></path>
    </g>
</svg>
